src/qt/voltpotcoin/res/img/img-empty-privacy.svg

<svg xmlns="http://www.w3.org/2000/svg" id="ic_empty_zvpc" width="100" height="100" viewBox="0 0 100 100">
    <defs>
        <style type="text/css">
            .cls-1{fill:#d6d6d6}.cls-2{fill:#666}.cls-3{fill:none}
        </style>
    </defs>
    <g id="Group_9086" data-name="Group 9086">
        <path id="Path_19031" d="M50 26a24 24 0 1 0 24 24 24 24 0 0 0-24-24zm0 42a18 18 0 1 1 18-18 18 18 0 0 1-18 18z" class="cls-1" data-name="Path 19031"/>
        <g id="Group_9085" data-name="Group 9085">
            <g id="Group_9083" data-name="Group 9083">
                <path id="Path_19032" d="M50 31a19 19 0 1 0 19 19 19.021 19.021 0 0 0-19-19zm0 36a17 17 0 1 1 17-17 17.019 17.019 0 0 1-17 17z" class="cls-2" data-name="Path 19032"/>
                <path id="Rectangle_4749" d="M0 0h2v4H0z" class="cls-2" data-name="Rectangle 4749" transform="translate(83 56)"/>
                <path id="Rectangle_4750" d="M0 0h2v8H0z" class="cls-2" data-name="Rectangle 4750" transform="translate(83 44)"/>
                <path id="Rectangle_4751" d="M0 0h2v8H0z" class="cls-2" data-name="Rectangle 4751" transform="translate(15 48)"/>
                <path id="Rectangle_4752" d="M0 0h2v4H0z" class="cls-2" data-name="Rectangle 4752" transform="translate(15 40)"/>
                <path id="Path_19033" d="M95.162 71H85v-7h-2v9h7.838L76 90.456 61.162 73H68v-2h-4.461a24.989 24.989 0 0 0-22.4-44.374L24 6.456 4.838 29H15v7h2v-9H9.162L24 9.544 38.838 27H32v2h4.461a24.989 24.989 0 0 0 22.4 44.374L76 93.544zM27 50a23 23 0 1 1 23 23 23.026 23.026 0 0 1-23-23z" class="cls-2" data-name="Path 19033"/>
            </g>
            <g id="Group_9084" data-name="Group 9084">
                <path id="Path_19034" d="M58.218 47.418a4.728 4.728 0 0 0-.653-.386 5.67 5.67 0 0 0-.354-.158c-.083-.032-.165-.064-.247-.089a6.268 6.268 0 0 0-2.053-.329h-4.763l-1.393 1.577 5.96-.026c.07 0 .146 0 .215.007a4.6 4.6 0 0 1 .615.057l.2.038a3.62 3.62 0 0 1 .551.152c.057.019.114.044.171.063a3.075 3.075 0 0 1 .33.152c.05.025.1.057.152.089a2.949 2.949 0 0 1 .424.3 3.081 3.081 0 0 1 .836 1.121c.025.057.051.114.07.171a3.935 3.935 0 0 1 .234.943 5.268 5.268 0 0 1 .038.64 4.53 4.53 0 0 1-.158 1.242 3.955 3.955 0 0 1-.266.7 3.293 3.293 0 0 1-.285.462 3.735 3.735 0 0 1-3.161 1.412h-5.85V64h1.723v-6.872H54.9a6.138 6.138 0 0 0 2.052-.336c.082-.031.165-.057.247-.1a1.532 1.532 0 0 0 .184-.082 4.403 4.403 0 0 0 .551-.292c.044-.025.088-.056.133-.082.025-.019.057-.038.082-.057a3.1 3.1 0 0 0 .285-.209 5.2 5.2 0 0 0 1.887-4.224 5.041 5.041 0 0 0-2.103-4.328z" class="cls-2" data-name="Path 19034"/>
                <path id="Path_19035" d="M52.821 38H40.977v1.691h9.178L40.68 50.927v1.413h12.274v-1.7l-9.424-.04 9.292-10.983z" class="cls-2" data-name="Path 19035"/>
            </g>
        </g>
    </g>
    <path id="Rectangle_4753" d="M0 0h100v100H0z" class="cls-3" data-name="Rectangle 4753"/>
</svg>

<?xml version="1.0" encoding="UTF-8" standalone="no"?>
<svg
   xmlns:dc="http://purl.org/dc/elements/1.1/"
   xmlns:cc="http://creativecommons.org/ns#"
   xmlns:rdf="http://www.w3.org/1999/02/22-rdf-syntax-ns#"
   xmlns:svg="http://www.w3.org/2000/svg"
   xmlns="http://www.w3.org/2000/svg"
   xmlns:sodipodi="http://sodipodi.sourceforge.net/DTD/sodipodi-0.dtd"
   xmlns:inkscape="http://www.inkscape.org/namespaces/inkscape"
   inkscape:version="1.0 (4035a4f, 2020-05-01)"
   sodipodi:docname="img-empty-privacy.svg"
   version="1.1"
   viewBox="0 0 100 100"
   height="100"
   width="100"
   id="ic_empty_zvpc">
  <metadata
     id="metadata31">
    <rdf:RDF>
      <cc:Work
         rdf:about="">
        <dc:format>image/svg+xml</dc:format>
        <dc:type
           rdf:resource="http://purl.org/dc/dcmitype/StillImage" />
      </cc:Work>
    </rdf:RDF>
  </metadata>
  <sodipodi:namedview
     inkscape:current-layer="ic_empty_zvpc"
     inkscape:window-maximized="0"
     inkscape:window-y="23"
     inkscape:window-x="0"
     inkscape:cy="48.098623"
     inkscape:cx="53.874893"
     inkscape:zoom="7.35"
     showgrid="false"
     id="namedview29"
     inkscape:window-height="897"
     inkscape:window-width="1502"
     inkscape:pageshadow="2"
     inkscape:pageopacity="0"
     guidetolerance="10"
     gridtolerance="10"
     objecttolerance="10"
     borderopacity="1"
     bordercolor="#666666"
     pagecolor="#ffffff" />
  <defs
     id="defs12">
    <style
       id="style10"
       type="text/css">
            .cls-1{fill:#d6d6d6}.cls-2{fill:#666}.cls-3{fill:none}
        </style>
  </defs>
  <g
     data-name="Group 9083"
     id="Group_9083">
    <path
       data-name="Path 19032"
       class="cls-2"
       d="M 50,31 A 19,19 0 1 0 69,50 19.021,19.021 0 0 0 50,31 Z m 0,36 A 17,17 0 1 1 67,50 17.019,17.019 0 0 1 50,67 Z"
       id="Path_19032" />
    <path
       transform="translate(83,56)"
       data-name="Rectangle 4749"
       class="cls-2"
       d="M 0,0 H 2 V 4 H 0 Z"
       id="Rectangle_4749" />
    <path
       transform="translate(83,44)"
       data-name="Rectangle 4750"
       class="cls-2"
       d="M 0,0 H 2 V 8 H 0 Z"
       id="Rectangle_4750" />
    <path
       transform="translate(15,48)"
       data-name="Rectangle 4751"
       class="cls-2"
       d="M 0,0 H 2 V 8 H 0 Z"
       id="Rectangle_4751" />
    <path
       transform="translate(15,40)"
       data-name="Rectangle 4752"
       class="cls-2"
       d="M 0,0 H 2 V 4 H 0 Z"
       id="Rectangle_4752" />
    <path
       data-name="Path 19033"
       class="cls-2"
       d="M 95.162,71 H 85 v -7 h -2 v 9 h 7.838 L 76,90.456 61.162,73 H 68 V 71 H 63.539 A 24.989,24.989 0 0 0 41.139,26.626 L 24,6.456 4.838,29 H 15 v 7 h 2 V 27 H 9.162 L 24,9.544 38.838,27 H 32 v 2 h 4.461 a 24.989,24.989 0 0 0 22.4,44.374 L 76,93.544 Z M 27,50 A 23,23 0 1 1 50,73 23.026,23.026 0 0 1 27,50 Z"
       id="Path_19033" />
  </g>
  <path
     data-name="Rectangle 4753"
     class="cls-3"
     d="M0 0h100v100H0z"
     id="Rectangle_4753" />
  <g
     id="g104">
    <path
       data-name="Path 19031"
       class="cls-1"
       d="M 50,26 A 24,24 0 1 0 74,50 24,24 0 0 0 50,26 Z m 0,42 A 18,18 0 1 1 68,50 18,18 0 0 1 50,68 Z"
       id="Path_19031" />
    <g
       id="g97">
      <path
         style="stroke-width:0.227749"
         id="Path_19035"
         d="m 37.550049,51.061225 h -2.653842 v 0.391453 h 2.056481 l -2.123029,2.601041 v 0.327098 h 2.75019 v -0.393536 l -2.1116,-0.0093 2.082024,-2.542474 z"
         class="cls-2"
         data-name="Path 19035" />
      <text
         id="text92"
         y="54.693878"
         x="36.870747"
         style="font-style:normal;font-variant:normal;font-weight:normal;font-stretch:normal;font-size:13.3333px;line-height:1.25;font-family:'Arial Unicode MS';-inkscape-font-specification:'Arial Unicode MS, Normal';font-variant-ligatures:normal;font-variant-caps:normal;font-variant-numeric:normal;font-variant-east-asian:normal;fill:#666666;fill-opacity:1;stroke:none"
         xml:space="preserve"><tspan
           style="font-style:normal;font-variant:normal;font-weight:normal;font-stretch:normal;font-size:13.3333px;font-family:'Arial Unicode MS';-inkscape-font-specification:'Arial Unicode MS, Normal';font-variant-ligatures:normal;font-variant-caps:normal;font-variant-numeric:normal;font-variant-east-asian:normal;fill:#666666;fill-opacity:1"
           y="54.693878"
           x="36.870747"
           id="tspan90"
           sodipodi:role="line">VPC</tspan></text>
    </g>
  </g>
</svg>
